icon-themes/sifr_svg/cmd/lc_diagramwall.svg

<svg viewBox="0 0 24 24" xmlns="http://www.w3.org/2000/svg"><g fill="#555753"><path d="m14.412157 10.677509-3.027344 2.501954c-.260249.203004-.376587.512079-.367187.820312h-.01758v3c.000368.554-.446 1-1 1s-.999632-.446-1-1v-3c-.000494-.743495.233705-1.1 1-1.435547z" opacity=".35"/><path d="m3 3c-.554 0-1 .446-1 1v16c0 .554.446 1 1 1h11.744141l-1.490235-2h-9.253906v-14h16v5.994141l2 2.683593v-9.677734c0-.554-.446-1-1-1zm14 5v6c0 .552285.447715 1 1 1s1-.447715 1-1v-6zm-1 1.3671875-4.615234 3.8125005c-.426586.332751-.510683.948932-.1875 1.382812l5.25 7.048828c.323183.433881.92693.514393 1.353515.181641l4.81836-3.976563c.426585-.332752.508727-.950885.185547-1.384765l-2.804688-3.763672v1.332031c0 1.092725-.907275 2-2 2s-2-.907275-2-2z"/></g></svg>

<svg xmlns="http://www.w3.org/2000/svg" viewBox="0 0 24 24">
  <path
     style="opacity:0.35;fill:#555753"
     d="m 14.412157,10.677509 -3.027344,2.501954 c -0.260249,0.203004 -0.376587,0.512079 -0.367187,0.820312 h -0.01758 v 3 c 3.68e-4,0.554 -0.446,1 -1,1 -0.554,0 -0.999632,-0.446 -1,-1 v -3 c -4.94e-4,-0.743495 0.233705,-1.1 1,-1.435547 z"
     />
  <path
     style="fill:#555753"
     d="M 3 3 C 2.446 3 2 3.446 2 4 L 2 20 C 2 20.554 2.446 21 3 21 L 14.744141 21 L 13.253906 19 L 4 19 L 4 5 L 20 5 L 20 10.994141 L 22 13.677734 L 22 4 C 22 3.446 21.554 3 21 3 L 3 3 z M 17 8 L 17 14 C 17 14.552285 17.447715 15 18 15 C 18.552285 15 19 14.552285 19 14 L 19 8 L 17 8 z M 16 9.3671875 L 11.384766 13.179688 C 10.95818 13.512439 10.874083 14.12862 11.197266 14.5625 L 16.447266 21.611328 C 16.770449 22.045209 17.374196 22.125721 17.800781 21.792969 L 22.619141 17.816406 C 23.045726 17.483654 23.127868 16.865521 22.804688 16.431641 L 20 12.667969 L 20 14 C 20 15.092725 19.092725 16 18 16 C 16.907275 16 16 15.092725 16 14 L 16 9.3671875 z "
     />
</svg>
